style-guide/assets/xd-icons-trash-open.svg

<?xml version="1.0" encoding="UTF-8"?>
<svg width="24px" height="24px" viewBox="0 0 24 24" version="1.1" xmlns="http://www.w3.org/2000/svg" xmlns:xlink="http://www.w3.org/1999/xlink">
    <!-- Generator: Sketch 51.3 (57544) - http://www.bohemiancoding.com/sketch -->
    <title>trash open</title>
    <desc>Created with Sketch.</desc>
    <defs>
        <path d="M20.0003004,8.00057682 C19.4473004,8.00057682 19.0003004,8.44757682 19.0003004,9.00057682 L19.0003004,21.0005768 L5.0003004,21.0005768 L5.0003004,10.7615768 L20.4063004,3.91457682 C20.9113004,3.68957682 21.1383004,3.09957682 20.9143004,2.59457682 C20.6893004,2.09057682 20.1003004,1.86157682 19.5943004,2.08657682 L3.6433004,9.17657682 C3.6103004,9.18757682 3.5783004,9.20257682 3.5473004,9.21957682 L1.5943004,10.0865768 C1.0893004,10.3115768 0.862300398,10.9015768 1.0863004,11.4065768 C1.3113004,11.9105768 1.9023004,12.1425768 2.4063004,11.9145768 L3.0003004,11.6505768 L3.0003004,22.0005768 C3.0003004,22.5535768 3.4473004,23.0005768 4.0003004,23.0005768 L20.0003004,23.0005768 C20.5533004,23.0005768 21.0003004,22.5535768 21.0003004,22.0005768 L21.0003004,9.00057682 C21.0003004,8.44757682 20.5533004,8.00057682 20.0003004,8.00057682 M4.0013004,6.00057682 C4.1373004,6.00057682 4.2743004,5.97357682 4.4063004,5.91457682 L13.4063004,1.91457682 C13.9113004,1.68957682 14.1383004,1.09957682 13.9143004,0.594576821 C13.6893004,0.0905768209 13.0993004,-0.138423179 12.5943004,0.0865768209 L3.5943004,4.08657682 C3.0893004,4.31157682 2.8623004,4.90157682 3.0863004,5.40657682 C3.2523004,5.77957682 3.6173004,6.00057682 4.0013004,6.00057682 M15.0003004,11.0005768 L15.0003004,17.0005768 C15.0003004,17.5535768 15.4473004,18.0005768 16.0003004,18.0005768 C16.5533004,18.0005768 17.0003004,17.5535768 17.0003004,17.0005768 L17.0003004,11.0005768 C17.0003004,10.4475768 16.5533004,10.0005768 16.0003004,10.0005768 C15.4473004,10.0005768 15.0003004,10.4475768 15.0003004,11.0005768 M11.0003004,12.0005768 L11.0003004,17.0005768 C11.0003004,17.5535768 11.4473004,18.0005768 12.0003004,18.0005768 C12.5533004,18.0005768 13.0003004,17.5535768 13.0003004,17.0005768 L13.0003004,12.0005768 C13.0003004,11.4475768 12.5533004,11.0005768 12.0003004,11.0005768 C11.4473004,11.0005768 11.0003004,11.4475768 11.0003004,12.0005768 M7.0003004,13.0005768 L7.0003004,17.0005768 C7.0003004,17.5535768 7.4473004,18.0005768 8.0003004,18.0005768 C8.5533004,18.0005768 9.0003004,17.5535768 9.0003004,17.0005768 L9.0003004,13.0005768 C9.0003004,12.4475768 8.5533004,12.0005768 8.0003004,12.0005768 C7.4473004,12.0005768 7.0003004,12.4475768 7.0003004,13.0005768" id="path-1"></path>
    </defs>
    <g id="trash-open" stroke="none" stroke-width="1" fill="none" fill-rule="evenodd">
        <mask id="mask-2" fill="white">
            <use xlink:href="#path-1"></use>
        </mask>
        <use id="icons/24px/Trash-Open" fill="#000000" xlink:href="#path-1"></use>
    </g>
</svg>

<svg viewBox="0 0 24 24" xmlns="http://www.w3.org/2000/svg" xmlns:xlink="http://www.w3.org/1999/xlink">
  <path d="M20 8a1 1 0 0 0-1 1v12H5V10.763l15.406-6.847a1 1 0 0 0-.812-1.828l-15.95 7.09a.587.587 0 0 0-.097.043l-1.953.867a1 1 0 0 0 .812 1.828L3 11.65V22a1 1 0 0 0 1 1h16a1 1 0 0 0 1-1V9a1 1 0 0 0-1-1M4.001 6a.987.987 0 0 0 .405-.086l9-4a1 1 0 0 0-.812-1.828l-9 4A1 1 0 0 0 4.001 6m11 5v6a1 1 0 1 0 2 0v-6a1 1 0 1 0-2 0m-4 1v5a1 1 0 1 0 2 0v-5a1 1 0 1 0-2 0m-4 1v4a1 1 0 1 0 2 0v-4a1 1 0 1 0-2 0"/>
</svg>
